public/characters/giko_basketball/back-standing.svg

<svg height="184" width="160" xmlns="http://www.w3.org/2000/svg"><circle cx="1505.03" cy="474.652" r="16.705" style="fill:#b05d02;stroke:#000;stroke-width:1px" transform="matrix(-1.00234 0 0 1.00234 1608.187 -405.963)"/><path d="M1536.52 481.049c-1.65 4.247 8.5 13.966 19.94 10.966" style="fill:none;stroke:#000;stroke-width:.7px" transform="matrix(-1.43518 0 0 1.43518 2317.8 -630.329)"/><path d="M1549.1 476.555c5.86 10.098 1.61 28.004-8.86 21.659-4.16-1.215-8.17-10.38-5.9-11.999 1.35 8.703 12.47 15.682 14.48 3.246.88-5.397-13.81-9.565-6.69-12.952 2.38-.923 4.69-.74 6.97.046Z" style="fill:none;stroke:#000;stroke-width:.7px" transform="matrix(-1.43518 0 0 1.43518 2317.8 -630.329)"/><path d="M1552.73 496.807c.33-5.022.57-5.887 3.73-11.166" style="fill:none;stroke:#000;stroke-width:.7px" transform="matrix(-1.43518 0 0 1.43518 2317.8 -630.329)"/><path d="M.25-60h3.9l1.2.55 3.85-8.6 3.85 8.6L14.3-60l3.15 3.05 1.15 1.1-.4.4.1.1c1.4 1.367 2.183 2.883 2.35 4.55v.6c0 1.1-.267 2.133-.8 3.1l-.25.45-1.4 1.7.1.1-.3.3-3.25.9v4.7l.6 1.35c1.033 0 1.75.2 2.15.6.533.533.8 1.2.8 2 0 .733-.25 1.35-.75 1.85-.7.7-2.05 1.117-4.05 1.25l.55 1.5-.05 2.75-1.5 1.25v12.25l-.85 4.6h-1.5V-3c0 .467-.15.85-.45 1.15-.367.367-.9.55-1.6.55-.733 0-1.283-.183-1.65-.55-.267-.3-.4-.683-.4-1.15v-6.55H4.5l-2.35-3.5H.4l-3.55 3.5V-3c0 .467-.15.85-.45 1.15-.367.367-.9.55-1.6.55-.733 0-1.283-.183-1.65-.55-.267-.3-.4-.683-.4-1.15v-6.55H-8.8l-1.7-1.1-1.75-3.9v-3.9l.45-.4c.5-.4.95-.917 1.35-1.55l-1.25-1c-.267.433-.5.75-.7.95l.4-10.95 1.75-12.8.4.35.75-.7-1-1.1c-1-1.267-1.5-2.65-1.5-4.15l.1-1c.233-1.533 1.033-2.95 2.4-4.25l-.75-.75.5-3.95.65.3 3.85-8.6 3.85 8.6L.25-60m17.2 3.05 1.15 1.1-1.15-1.1M13.1-43.6l.75-1.55v-1.35h-1.5v1.45h.55l-.55 1.45h.75m-2.9 0 .75-1.55v-1.35h-1.5v1.45H10l-.55 1.45h.75" style="fill:#fff" transform="matrix(2 0 0 2 79.641 142)"/><path d="m80.141 22-2.5 1.1-7.7-17.2-7.7 17.2-1.3-.6-1.1-.5 10.1-22 10.2 22m-20.2 8.4 1.5 1.5c-2.734 2.6-4.334 5.434-4.8 8.5l-.2 2c0 3 1 5.766 3 8.3l2 2.2-1.5 1.4-.8-.7-1.2-1.4c-2.4-2.934-3.6-6.2-3.6-9.8l.2-2c.4-3.734 2.2-7.066 5.4-10m-5.1 70.7c.4-.4.866-1.034 1.4-1.9l2.5 2c-.8 1.266-1.7 2.3-2.7 3.1l-.9.8c-.934.6-2 .9-3.2.9-1.266 0-3.034-.734-5.3-2.2-1.534-.866-2.8-1.3-3.8-1.3-1.134 0-2 .366-2.6 1.1l-1.2 1.9-2.7-1.5 2.4-3.3c1.134-1.066 2.434-1.6 3.9-1.6 1.466 0 2.966.534 4.5 1.6 2.2 1.134 3.9 1.7 5.1 1.7.866 0 1.734-.434 2.6-1.3m7.2 21.8h3.1V136c0 .934.266 1.7.8 2.3.734.734 1.834 1.1 3.3 1.1 1.4 0 2.466-.366 3.2-1.1.6-.6.9-1.366.9-2.3v-13.1h3v13.2c0 1.666-.534 3.034-1.6 4.1-1.2 1.2-3.034 1.8-5.5 1.8-2.534 0-4.4-.6-5.6-1.8-1.066-1.066-1.6-2.434-1.6-4.1v-13.2m26.6 0h3.1V136c0 .934.266 1.7.8 2.3.734.734 1.834 1.1 3.3 1.1 1.4 0 2.466-.366 3.2-1.1.6-.6.9-1.366.9-2.3v-13.1h3v13.2c0 1.666-.534 3.034-1.6 4.1-1.2 1.2-3.034 1.8-5.5 1.8-2.534 0-4.4-.6-5.6-1.8-1.066-1.066-1.6-2.434-1.6-4.1v-13.2m27.6-70.6-.2-.2 2.8-3.4.5-.9c1.066-1.934 1.6-4 1.6-6.2v-1.2c-.334-3.334-1.9-6.366-4.7-9.1l-.2-.2.8-.8.6-.7c3.4 3.134 5.266 6.734 5.6 10.8v1.2c0 2.534-.6 4.9-1.8 7.1-.934 1.666-2.2 3.266-3.8 4.8l-1.2-1.2m-8-30.3-2.5 1.1-7.7-17.2-7.7 17.2-2.4-1.1 10.1-22 10.2 22m-8.2 32.8h-1.5l1.1-2.9h-1.1V49h3v2.7l-1.5 3.1m5.8 0h-1.5l1.1-2.9h-1.1V49h3v2.7l-1.5 3.1"/><path d="M4.15-60H.25M12.5-14.15V-26.4m6.1-29.45-1.15-1.1" style="fill:none;fill-rule:nonzero;stroke:#000;stroke-width:1px;stroke-miterlimit:4" transform="matrix(2 0 0 2 79.641 142)"/><path d="m55.216 60.31 3.34-5.937 3.879.852c12.993 13.066 35.453 12.034 42.006.421 0 0 2.064 3.77 2.467 6.864 1.294 9.944 2.145 29.513 1.435 32.838l-54.066-.733c-.689-12.748-2.284-21.557.939-34.305Zm6.244 1.015c-3.701-.547-4.983 1.333-6.772 6.812-2.055 6.295.897 16.76 5.783 16.76 4.887 0 8.016-4.018 8.535-10.619.439-5.59-1.982-12.132-7.546-12.953Z" style="fill:#c7c7c7;stroke:#000;stroke-width:2px;stroke-linecap:butt" transform="scale(-1 1) rotate(-3.493 0 2755.786)"/><path d="m91.702 66.897 3.366.097 1.092 2.193-.391 6.237-2.99 2.007 2.771 1.984-.303 7.266-2.152 1.843-2.984-.196-1.244-2.176.648-6.94 3.264-1.781-2.836-2.509.16-6.187 1.599-1.838Z" style="fill:none;stroke:#ffdb69;stroke-width:2.5px;stroke-linecap:butt" transform="translate(-17.901 2.569)"/><path d="M70.252 68.803c4.524-2.168 9.048-3.314 13.572-3.526 3.84.403 5.331 1.406 6.318 3.14 1.162 2.041 1.304 5.054-.974 8.7-3.395 1.558-7.188 2.319-11.421 2.2" style="fill:#fff;stroke:#000;stroke-width:3px;stroke-linecap:butt" transform="translate(27.885 -.172)"/><g style="display:none"><path d="M107.46 30.1h6.3" style="fill:none;fill-rule:nonzero;stroke:#000;stroke-width:3px;stroke-miterlimit:4" transform="translate(.338 1.6)" id="gikopoipoi_eyes_closed"/></g><path d="M1.35 0h.2l.55.1.45.35c.3.3.45.633.45 1L2.55 2.6c-.3.267-.633.4-1 .4l-.8-.2-.25-.2-.45-.7v-.15L0 1.45v-.1c.033-.333.2-.633.5-.9l.25-.2C.917.117 1.1.033 1.3 0h.05m.45.85L1.55.8C1.317.767 1.133.833 1 1c-.133.1-.2.25-.2.45v.15l.15.45H1l.05.05.2.1.3.05.55-.2.15-.6-.05-.3L2.1 1 2.05.95 1.9.85h-.1" transform="matrix(2.0124 0 0 2 107.922 28.6)" id="gikopoipoi_eyes_open"/></svg>

<svg height="184" width="160" xmlns="http://www.w3.org/2000/svg">
    <g transform="matrix(-1.43518,0,0,1.43518,2317.8,-630.329)">
        <g transform="matrix(0.698409,0,0,0.698409,494.442,156.333)">
            <circle cx="1505.03" cy="474.652" r="16.705" style="fill:rgb(176,93,2);stroke:black;stroke-width:1px;"/>
        </g>
        <path d="M1536.52,481.049C1534.87,485.296 1545.02,495.015 1556.46,492.015" style="fill:none;stroke:black;stroke-width:0.7px;"/>
        <path d="M1549.1,476.555C1554.96,486.653 1550.71,504.559 1540.24,498.214C1536.08,496.999 1532.07,487.834 1534.34,486.215C1535.69,494.918 1546.81,501.897 1548.82,489.461C1549.7,484.064 1535.01,479.896 1542.13,476.509C1544.51,475.586 1546.82,475.769 1549.1,476.555Z" style="fill:none;stroke:black;stroke-width:0.7px;"/>
        <path d="M1552.73,496.807C1553.06,491.785 1553.3,490.92 1556.46,485.641" style="fill:none;stroke:black;stroke-width:0.7px;"/>
    </g>
    <g id="a" transform="matrix(2,0,0,2,36.341,0)">
        <g transform="matrix(1,0,0,1,21.65,71)">
            <path d="M0.25,-60L4.15,-60L5.35,-59.45L9.2,-68.05L13.05,-59.45L14.3,-60L17.45,-56.95L18.6,-55.85L18.2,-55.45L18.3,-55.35C19.7,-53.983 20.483,-52.467 20.65,-50.8L20.65,-50.2C20.65,-49.1 20.383,-48.067 19.85,-47.1L19.6,-46.65L18.2,-44.95L18.3,-44.85L18,-44.55L14.75,-43.65L14.75,-38.95L15.35,-37.6C16.383,-37.6 17.1,-37.4 17.5,-37C18.033,-36.467 18.3,-35.8 18.3,-35C18.3,-34.267 18.05,-33.65 17.55,-33.15C16.85,-32.45 15.5,-32.033 13.5,-31.9L14.05,-30.4L14,-27.65L12.5,-26.4L12.5,-14.15L11.65,-9.55L10.15,-9.55L10.15,-3C10.15,-2.533 10,-2.15 9.7,-1.85C9.333,-1.483 8.8,-1.3 8.1,-1.3C7.367,-1.3 6.817,-1.483 6.45,-1.85C6.183,-2.15 6.05,-2.533 6.05,-3L6.05,-9.55L4.5,-9.55L2.15,-13.05L0.4,-13.05L-3.15,-9.55L-3.15,-3C-3.15,-2.533 -3.3,-2.15 -3.6,-1.85C-3.967,-1.483 -4.5,-1.3 -5.2,-1.3C-5.933,-1.3 -6.483,-1.483 -6.85,-1.85C-7.117,-2.15 -7.25,-2.533 -7.25,-3L-7.25,-9.55L-8.8,-9.55L-10.5,-10.65L-12.25,-14.55L-12.25,-18.45L-11.8,-18.85C-11.3,-19.25 -10.85,-19.767 -10.45,-20.4L-11.7,-21.4C-11.967,-20.967 -12.2,-20.65 -12.4,-20.45L-12,-31.4L-10.25,-44.2L-9.85,-43.85L-9.1,-44.55L-10.1,-45.65C-11.1,-46.917 -11.6,-48.3 -11.6,-49.8L-11.5,-50.8C-11.267,-52.333 -10.467,-53.75 -9.1,-55.05L-9.85,-55.8L-9.35,-59.75L-8.7,-59.45L-4.85,-68.05L-1,-59.45L0.25,-60M17.45,-56.95L18.6,-55.85L17.45,-56.95M13.1,-43.6L13.85,-45.15L13.85,-46.5L12.35,-46.5L12.35,-45.05L12.9,-45.05L12.35,-43.6L13.1,-43.6M10.2,-43.6L10.95,-45.15L10.95,-46.5L9.45,-46.5L9.45,-45.05L10,-45.05L9.45,-43.6L10.2,-43.6" style="fill:white;"/>
        </g>
        <g transform="matrix(1,0,0,1,21.65,71)">
            <path d="M0.25,-60L-1,-59.45L-4.85,-68.05L-8.7,-59.45L-9.35,-59.75L-9.9,-60L-4.85,-71L0.25,-60M-9.85,-55.8L-9.1,-55.05C-10.467,-53.75 -11.267,-52.333 -11.5,-50.8L-11.6,-49.8C-11.6,-48.3 -11.1,-46.917 -10.1,-45.65L-9.1,-44.55L-9.85,-43.85L-10.25,-44.2L-10.85,-44.9C-12.05,-46.367 -12.65,-48 -12.65,-49.8L-12.55,-50.8C-12.35,-52.667 -11.45,-54.333 -9.85,-55.8M-12.4,-20.45C-12.2,-20.65 -11.967,-20.967 -11.7,-21.4L-10.45,-20.4C-10.85,-19.767 -11.3,-19.25 -11.8,-18.85L-12.25,-18.45C-12.717,-18.15 -13.25,-18 -13.85,-18C-14.483,-18 -15.367,-18.367 -16.5,-19.1C-17.267,-19.533 -17.9,-19.75 -18.4,-19.75C-18.967,-19.75 -19.4,-19.567 -19.7,-19.2L-20.3,-18.25L-21.65,-19L-20.45,-20.65C-19.883,-21.183 -19.233,-21.45 -18.5,-21.45C-17.767,-21.45 -17.017,-21.183 -16.25,-20.65C-15.15,-20.083 -14.3,-19.8 -13.7,-19.8C-13.267,-19.8 -12.833,-20.017 -12.4,-20.45M-8.8,-9.55L-7.25,-9.55L-7.25,-3C-7.25,-2.533 -7.117,-2.15 -6.85,-1.85C-6.483,-1.483 -5.933,-1.3 -5.2,-1.3C-4.5,-1.3 -3.967,-1.483 -3.6,-1.85C-3.3,-2.15 -3.15,-2.533 -3.15,-3L-3.15,-9.55L-1.65,-9.55L-1.65,-2.95C-1.65,-2.117 -1.917,-1.433 -2.45,-0.9C-3.05,-0.3 -3.967,-0 -5.2,-0C-6.467,-0 -7.4,-0.3 -8,-0.9C-8.533,-1.433 -8.8,-2.117 -8.8,-2.95L-8.8,-9.55M4.5,-9.55L6.05,-9.55L6.05,-3C6.05,-2.533 6.183,-2.15 6.45,-1.85C6.817,-1.483 7.367,-1.3 8.1,-1.3C8.8,-1.3 9.333,-1.483 9.7,-1.85C10,-2.15 10.15,-2.533 10.15,-3L10.15,-9.55L11.65,-9.55L11.65,-2.95C11.65,-2.117 11.383,-1.433 10.85,-0.9C10.25,-0.3 9.333,-0 8.1,-0C6.833,-0 5.9,-0.3 5.3,-0.9C4.767,-1.433 4.5,-2.117 4.5,-2.95L4.5,-9.55M18.3,-44.85L18.2,-44.95L19.6,-46.65L19.85,-47.1C20.383,-48.067 20.65,-49.1 20.65,-50.2L20.65,-50.8C20.483,-52.467 19.7,-53.983 18.3,-55.35L18.2,-55.45L18.6,-55.85L18.9,-56.2C20.6,-54.633 21.533,-52.833 21.7,-50.8L21.7,-50.2C21.7,-48.933 21.4,-47.75 20.8,-46.65C20.333,-45.817 19.7,-45.017 18.9,-44.25L18.3,-44.85M14.3,-60L13.05,-59.45L9.2,-68.05L5.35,-59.45L4.15,-60L9.2,-71L14.3,-60M10.2,-43.6L9.45,-43.6L10,-45.05L9.45,-45.05L9.45,-46.5L10.95,-46.5L10.95,-45.15L10.2,-43.6M13.1,-43.6L12.35,-43.6L12.9,-45.05L12.35,-45.05L12.35,-46.5L13.85,-46.5L13.85,-45.15L13.1,-43.6"/>
        </g>
        <g transform="matrix(1,0,0,1,21.65,71)">
            <path d="M4.15,-60L0.25,-60M12.5,-14.15L12.5,-26.4M18.6,-55.85L17.45,-56.95" style="fill:none;fill-rule:nonzero;stroke:black;stroke-width:1px;stroke-miterlimit:4;"/>
        </g>
    </g>
    <g transform="matrix(-0.998142,-0.060926,-0.060926,0.998142,167.899,5.11946)">
        <path d="M55.216,60.31L58.556,54.373L62.435,55.225C75.428,68.291 97.888,67.259 104.441,55.646C104.441,55.646 106.505,59.416 106.908,62.51C108.202,72.454 109.053,92.023 108.343,95.348L54.277,94.615C53.588,81.867 51.993,73.058 55.216,60.31ZM61.46,61.325C57.759,60.778 56.477,62.658 54.688,68.137C52.633,74.432 55.585,84.897 60.471,84.897C65.358,84.897 68.487,80.879 69.006,74.278C69.445,68.688 67.024,62.146 61.46,61.325Z" style="fill:rgb(199,199,199);stroke:black;stroke-width:2px;stroke-linecap:butt;"/>
    </g>
    <g transform="matrix(1,0,0,1,-17.9012,2.5686)">
        <path d="M91.702,66.897L95.068,66.994L96.16,69.187L95.769,75.424L92.779,77.431L95.55,79.415L95.247,86.681L93.095,88.524L90.111,88.328L88.867,86.152L89.515,79.212L92.779,77.431L89.943,74.922L90.103,68.735L91.702,66.897Z" style="fill:none;stroke:rgb(255,219,105);stroke-width:2.5px;stroke-linecap:butt;"/>
    </g>
    <g transform="matrix(1,0,0,1,27.8853,-0.172486)">
        <path d="M70.252,68.803C74.776,66.635 79.3,65.489 83.824,65.277C87.664,65.68 89.155,66.683 90.142,68.417C91.304,70.458 91.446,73.471 89.168,77.117C85.773,78.675 81.98,79.436 77.747,79.317" style="fill:white;stroke:black;stroke-width:3px;stroke-linecap:butt;"/>
    </g>
    <g id="gikopoipoi_eyes_closed" style="display:none" transform="matrix(1,0,0,1,0.338,1.6)">
        <path d="M107.46,30.1L113.76,30.1" style="fill:none;fill-rule:nonzero;stroke:black;stroke-width:3px;stroke-miterlimit:4;"/>
    </g>
    <g id="gikopoipoi_eyes_open" transform="matrix(2.0124,0,0,2,107.922,28.6)">
        <path d="M1.35,0L1.55,0L2.1,0.1L2.55,0.45C2.85,0.75 3,1.083 3,1.45L2.55,2.6C2.25,2.867 1.917,3 1.55,3L0.75,2.8L0.5,2.6L0.05,1.9L0.05,1.75L0,1.45L0,1.35C0.033,1.017 0.2,0.717 0.5,0.45L0.75,0.25C0.917,0.117 1.1,0.033 1.3,0L1.35,0M1.8,0.85L1.55,0.8C1.317,0.767 1.133,0.833 1,1C0.867,1.1 0.8,1.25 0.8,1.45L0.8,1.6L0.95,2.05L1,2.05L1.05,2.1L1.25,2.2L1.55,2.25L2.1,2.05L2.25,1.45L2.2,1.15L2.1,1L2.05,0.95L1.9,0.85L1.8,0.85"/>
    </g>
</svg>
